img/coin.svg

<svg fill="none" height="32" viewBox="0 0 32 32" width="32" xmlns="http://www.w3.org/2000/svg"><g fill="#fd9222"><path d="m15.9998 2.66675c-7.3333 0-13.3333 6-13.3333 13.33335 0 7.3333 6 13.3333 13.3333 13.3333 7.3334 0 13.3334-6 13.3334-13.3333 0-7.33335-6-13.33335-13.3334-13.33335zm0 23.99995c-5.8666 0-10.66663-4.8-10.66663-10.6666 0-5.8667 4.80003-10.66669 10.66663-10.66669 5.8667 0 10.6667 4.79999 10.6667 10.66669 0 5.8666-4.8 10.6666-10.6667 10.6666z"/><path d="m17.7332 14.6667h-3.4666c-.6667 0-1.2-.5334-1.2-1.2 0-.6667.5333-1.2 1.2-1.2h4.9333c.8 0 1.3333-.5334 1.3333-1.3334s-.5333-1.33332-1.3333-1.33332h-1.8667v-1.2c0-.8-.5333-1.33333-1.3333-1.33333s-1.3333.53333-1.3333 1.33333v1.2h-.4c-2.1334 0-3.8667 1.73332-3.8667 3.86672 0 2.1333 1.7333 3.8666 3.8667 3.8666h3.3333c.6667 0 1.2.5333 1.2 1.2s-.5333 1.2-1.2 1.2h-4.9333c-.8 0-1.3334.5334-1.3334 1.3334s.5334 1.3333 1.3334 1.3333h2v1.2c0 .8.5333 1.3333 1.3333 1.3333s1.3333-.5333 1.3333-1.3333v-1.2h.4c2.1334 0 3.8667-1.7333 3.8667-3.8667 0-2.1333-1.7333-3.8666-3.8667-3.8666z"/></g></svg>

<svg width="32" height="32" viewBox="0 0 32 32" fill="none" xmlns="http://www.w3.org/2000/svg">
<path d="M15.9998 2.66675C8.6665 2.66675 2.6665 8.66675 2.6665 16.0001C2.6665 23.3334 8.6665 29.3334 15.9998 29.3334C23.3332 29.3334 29.3332 23.3334 29.3332 16.0001C29.3332 8.66675 23.3332 2.66675 15.9998 2.66675ZM15.9998 26.6667C10.1332 26.6667 5.33317 21.8667 5.33317 16.0001C5.33317 10.1334 10.1332 5.33341 15.9998 5.33341C21.8665 5.33341 26.6665 10.1334 26.6665 16.0001C26.6665 21.8667 21.8665 26.6667 15.9998 26.6667Z" fill="#FD9222"/>
<path d="M17.7332 14.6667H14.2666C13.5999 14.6667 13.0666 14.1333 13.0666 13.4667C13.0666 12.8 13.5999 12.2667 14.2666 12.2667H19.1999C19.9999 12.2667 20.5332 11.7333 20.5332 10.9333C20.5332 10.1333 19.9999 9.59998 19.1999 9.59998H17.3332V8.39998C17.3332 7.59998 16.7999 7.06665 15.9999 7.06665C15.1999 7.06665 14.6666 7.59998 14.6666 8.39998V9.59998H14.2666C12.1332 9.59998 10.3999 11.3333 10.3999 13.4667C10.3999 15.6 12.1332 17.3333 14.2666 17.3333H17.5999C18.2666 17.3333 18.7999 17.8666 18.7999 18.5333C18.7999 19.2 18.2666 19.7333 17.5999 19.7333H12.6666C11.8666 19.7333 11.3332 20.2667 11.3332 21.0667C11.3332 21.8667 11.8666 22.4 12.6666 22.4H14.6666V23.6C14.6666 24.4 15.1999 24.9333 15.9999 24.9333C16.7999 24.9333 17.3332 24.4 17.3332 23.6V22.4H17.7332C19.8666 22.4 21.5999 20.6667 21.5999 18.5333C21.5999 16.4 19.8666 14.6667 17.7332 14.6667Z" fill="#FD9222"/>
</svg>
